X:186
T:Quant voi
C:Manuscript de Montpellier (XIIIe siècle)
R:Motet
M:3/4
L:1/8
Q:1/4=120
% Last note suggests Phrygian mode tune
K:G 
V:1
e4e2 | A4 (3Bcd | B3- B2z | d4d2 | 
B4cB | B3- B2z | G4AB | d4ef | 
g4 (3fed | e3- e2z | A4AB | d4d2 | 
d4 (3edc | B3- B2z | e2f2e2 | d2 (3cBcA2 | 
e3- e2z | A4A2 | B4cA | B3- B2z | 
d2d2d2 | d2c2BA | G4d2 | e3- e2z | 
A4 (3BAG | A4B2 | d4 (3edc | B6 |]
V:2
B4B2 | d4d2 | e3- e2z | A4B2 | 
e4 (3fgf | e3- e2z | d4e2 | d4d2 | 
d4c2 | B3- B2z | d4cB | A4B2 | 
d4ef | e3- e2z | B4B2 | A4cB | 
A3- A2z | d4d2 | e4ed | e3- e2z | 
d4ef | g4e2 | d4 (3edc | B3- B2z | 
d4cB | A4G2 | A4cd | e6 |]
V:3
E3- E2z | D4=F2 | =E3- E2z | D3- D2z | 
E4C2 | E3- E2z | G3- G2z | G4G2 | 
G3- G2z | E3- E2z | D4E2 | D3- D2z | 
D6 | E3- E2z | E3- E2z | D4=F2 | 
=E3- E2z | D3- D2z | E4C2 | E3- E2z | 
G3- G2z | G4G2 | G3- G2z | E3- E2z | 
D4E2 | D3- D2z | D6 | E6 |]





